X:369
T: Shangchashan
N: C1870
O: China, Guizhou Yinjiang
S: II, 134]
R: Xiaodiao]
M: 2/4
L: 1/16
K: G
A2AGE4 | A2AGE4 | A2B4A2 | dBBAA2G2
A2B4A2 | dBBAA2G2
BBBdE2EG | A6B2 | G2E4B2 | A3GEGD2 | E8
e3dd2A2 | dBBAA2G2 | A2BAGBAG | E8
BBBdE2EG | A6B2 | G2E4B2 | A3GEGD2 | E8

